svg/icon/zil.svg

<svg height="32" viewBox="0 0 32 32" width="32" xmlns="http://www.w3.org/2000/svg" xmlns:xlink="http://www.w3.org/1999/xlink"><defs><linearGradient id="a" x1="50%" x2="50%" y1="0%" y2="100%"><stop offset="0" stop-color="#fff" stop-opacity=".5"/><stop offset="1" stop-opacity=".5"/></linearGradient><circle id="b" cx="16" cy="15" r="15"/><filter id="c" height="111.7%" width="111.7%" x="-5.8%" y="-4.2%"><feOffset dy=".5" in="SourceAlpha" result="shadowOffsetOuter1"/><feGaussianBlur in="shadowOffsetOuter1" result="shadowBlurOuter1" stdDeviation=".5"/><feComposite in="shadowBlurOuter1" in2="SourceAlpha" operator="out" result="shadowBlurOuter1"/><feColorMatrix in="shadowBlurOuter1" values="0 0 0 0 0   0 0 0 0 0   0 0 0 0 0  0 0 0 0.199473505 0"/></filter><filter id="d" height="117.5%" width="125%" x="-12.5%" y="-6.2%"><feOffset dy=".5" in="SourceAlpha" result="shadowOffsetOuter1"/><feGaussianBlur in="shadowOffsetOuter1" result="shadowBlurOuter1" stdDeviation=".5"/><feColorMatrix in="shadowBlurOuter1" result="shadowMatrixOuter1" values="0 0 0 0 0   0 0 0 0 0   0 0 0 0 0  0 0 0 0.204257246 0"/><feMerge><feMergeNode in="shadowMatrixOuter1"/><feMergeNode in="SourceGraphic"/></feMerge></filter></defs><g fill="none" fill-rule="nonzero"><g><use fill="#000" filter="url(#c)" xlink:href="#b"/><use fill="#49c1bf" fill-rule="evenodd" xlink:href="#b"/><use fill="url(#a)" fill-rule="evenodd" xlink:href="#b"/><circle cx="16" cy="15" r="14.5" stroke="#000" stroke-opacity=".097"/></g><g fill="#fff" filter="url(#d)" transform="translate(9 5)"><path d="m0 1.281 11.114 5.383 2.845-1.282-11.068-5.382z" fill-opacity=".304"/><path d="m11.1139159 6.65125858 2.8453074-1.28146453v2.86498856l-2.8453074 1.28146453zm0 13.28421052v-8.9377574l2.8453074-1.29519454v8.95148744z" fill-opacity=".646"/><path d="m0 1.284v2.897l7.693 3.737-7.693 3.81v2.856l11.114 5.373v-2.874l-7.548-3.671 7.548-3.881v-2.865z"/></g></g></svg>

<svg xmlns="http://www.w3.org/2000/svg" xmlns:xlink="http://www.w3.org/1999/xlink" width="32" height="32" viewBox="0 0 32 32">
  <defs>
    <linearGradient id="zil-c" x1="50%" x2="50%" y1="0%" y2="100%">
      <stop offset="0%" stop-color="#FFF" stop-opacity=".5"/>
      <stop offset="100%" stop-opacity=".5"/>
    </linearGradient>
    <circle id="zil-b" cx="16" cy="15" r="15"/>
    <filter id="zil-a" width="111.7%" height="111.7%" x="-5.8%" y="-4.2%" filterUnits="objectBoundingBox">
      <feOffset dy=".5" in="SourceAlpha" result="shadowOffsetOuter1"/>
      <feGaussianBlur in="shadowOffsetOuter1" result="shadowBlurOuter1" stdDeviation=".5"/>
      <feComposite in="shadowBlurOuter1" in2="SourceAlpha" operator="out" result="shadowBlurOuter1"/>
      <feColorMatrix in="shadowBlurOuter1" values="0 0 0 0 0   0 0 0 0 0   0 0 0 0 0  0 0 0 0.199473505 0"/>
    </filter>
    <filter id="zil-d" width="125%" height="117.5%" x="-12.5%" y="-6.2%" filterUnits="objectBoundingBox">
      <feOffset dy=".5" in="SourceAlpha" result="shadowOffsetOuter1"/>
      <feGaussianBlur in="shadowOffsetOuter1" result="shadowBlurOuter1" stdDeviation=".5"/>
      <feColorMatrix in="shadowBlurOuter1" result="shadowMatrixOuter1" values="0 0 0 0 0   0 0 0 0 0   0 0 0 0 0  0 0 0 0.204257246 0"/>
      <feMerge>
        <feMergeNode in="shadowMatrixOuter1"/>
        <feMergeNode in="SourceGraphic"/>
      </feMerge>
    </filter>
  </defs>
  <g fill="none" fill-rule="evenodd">
    <g fill-rule="nonzero">
      <use fill="#000" filter="url(#zil-a)" xlink:href="#zil-b"/>
      <use fill="#49C1BF" fill-rule="evenodd" xlink:href="#zil-b"/>
      <use fill="url(#zil-c)" fill-rule="evenodd" style="mix-blend-mode:soft-light" xlink:href="#zil-b"/>
      <circle cx="16" cy="15" r="14.5" stroke="#000" stroke-opacity=".097"/>
    </g>
    <g fill="#FFF" fill-rule="nonzero" filter="url(#zil-d)" transform="translate(9 5)">
      <polygon fill-opacity=".304" points="0 1.281 11.114 6.664 13.959 5.382 2.891 0"/>
      <path fill-opacity=".646" d="M11.1139159,6.65125858 L13.9592233,5.36979405 L13.9592233,8.23478261 L11.1139159,9.51624714 L11.1139159,6.65125858 Z M11.1139159,19.9354691 L11.1139159,10.9977117 L13.9592233,9.70251716 L13.9592233,18.6540046 L11.1139159,19.9354691 Z"/>
      <polygon points="0 1.284 0 4.181 7.693 7.918 0 11.728 0 14.584 11.114 19.957 11.114 17.083 3.566 13.412 11.114 9.531 11.114 6.666"/>
    </g>
  </g>
</svg>
